X:48
T:Looking for the Fifth Foot of the Cat
R:courante
C: 1983, 2010 L.E. McCullough  
M:3/4
L:1/8
K:Bm
Bc|:d>c de dc|d>c de de|f2fe cd|B4 Bc|
de gf de|cB AB AB|cd ed (3cBA|1 B4 Bc:|2 B4de|]
|:~f3e fg|~a3g fe|~f3e cd|B4Bc|
de gf de|cB AB AB|cd ed  (3cBA|1 B4 de:|2 B4 Bc|]
<end>
<start>
